X: 6385
T:Four Shoves
S:Irish Traditional    Arranged by John Layton 14/2/01
R:Polka
O:Ireland
M:2/4
L:1/16
K:D
E2B2 BAB2|E2B2 A4|E2B2 BABc|d4 A4|
E2B2 BAB2|E2B2 A4|E2B2 BABc|d4 A4|
:d2Ad e2fe|d2f2 f2e2|d2Ad e2fe|d4 d3A|
d2Ad e2fe|d2f2 f2e2|f2gf e2fe|1 d4 d3A:|2 d4 d4|
